!!!!SEGMENT: pl-wnifc--6021-n--002_stefani-p--o-milosci-czas-wszystko-goi-na-koniec.krn
!!!cenid: 18xx:3913
!!!COM: Stefani, P.
!!!COM-rismID: pe50044921
!!!CDT:
!!!CNT:
!!!OTL: O miłości/Czas wszystko goi na koniec
!!!PDT:
!!!AGN:
!!!SMS-siglum: PL-Wnifc
!!!SMS-shelfmark: 6021/n
!!!SMS-variant:
!!!SMS-altvar:
!!!SMS-shelfwork: 002 W
!!!NIFC-rismSourceID: 1001134154
!!!NIFC-rismChildID: 1001134159
!!!NIFC-islandoraID: nifc:212586
!!!URL-pdf-islandora: https://repozytorium.nifc.pl/islandora/object/nifc%3A212586/datastream/PDF/view
!!!URL-scan: https://polish.musicsources.pl/pl/lokalizacje/galeria/druki-muzyczne/16848 @EN{Scan on Polish Music Sources Website} @PL{Skany w portalu Dziedzictwo Muzyki Polskiej w otwartym dostępie}
!!!IIIF:
!!!ONB-nifc: UWAGA: s. 6-7
!!!AIN: 2 clavi 1 vox
!!!key: B-
**kern	**kern	**kern	**text
*part3	*part2	*part1	*part1
*staff3	*staff2	*staff1	*staff1
*I"Klawikord	*I"Klawikord	*I"[Voce]	*
*I'clavicordo	*I'clavicordo	*I'V	*
*ICklav	*ICklav	*ICvox	*
*Iclavi	*Iclavi	*Ivox	*
*clefF4	*clefG2	*clefG2	*
*k[b-e-]	*k[b-e-]	*k[b-e-]	*
*B-:	*B-:	*B-:	*
*M2/4	*M2/4	*M2/4	*
!!LO:TX:t=P:problem:system decoration wg źródła	!	!	!	!	!
!	!	!LO:TX:a:B:t=Andantino.	!
8r	8ff\	8r	.
=1	=1	=1	=1
4BB-\ 4B-	(16dd\LL 16bb-	2r	.
.	16dd\) 16ff	.	.
.	16dd'\ 16ff	.	.
.	16dd'\JJ 16ff	.	.
8FF/L 8F	(16dd\LL 16ff	.	.
.	16cc\) 16ee-	.	.
8FF#X/J 8F#X	16cc'\ 16ee-	.	.
.	16cc'\JJ 16ee-	.	.
=2	=2	=2	=2
4GG/ 4G	16cc\LL 16ee-	2r	.
.	16b-\ 16dd	.	.
.	16dd\ 16bb-	.	.
.	16b-\JJ 16dd	.	.
8E-\L	16g/LL 16cc	.	.
.	16g/ 16cc	.	.
8F\J	16c/ 16e- 16a	.	.
.	16c/JJ 16e- 16a	.	.
=3	=3	=3	=3
8BB-/L	16d/LL 16b-	2r	.
.	16d/ 16f	.	.
8BB-/J	16d/ 16f	.	.
.	16d/JJ 16f	.	.
8BB-/L	16d/LL 16f	.	.
.	16e-/ 16g	.	.
8BB-/J	16e-/ 16g	.	.
.	16c/JJ 16e- 16a	.	.
=4	=4	=4	=4
4BB-/	4c/ 4e- 4a	4r	.
8BB-/	8d/ 8b-	8r	.
8r	8r	8f/	Czas
=5	=5	=5	=5
*clefG2	*	*	*
16B-/LL	8r	8b-/	wszy-
16f/	.	.	.
16d/	8bb-\	8b-/	-stko
16f/JJ	.	.	.
16B-/LL	8r	16b-/LL	go-
16f/	.	16dd/JJ	.
16d/	8bb-\	16cc/LL	-i
16f/JJ	.	16b-/JJ	na-
!!LO:LB:g=original	!	!	!
=6	=6	=6	=6
.	.	8qb-/	.
16c/LL	8r	8a/	-ko-
16f/	.	.	.
16e-/	[8aa\	8a/	-niec
16f/JJ	.	.	.
16c/LL	16aa\LL]	8r	.
16f/	16bb-\	.	.
16e-/	16ccc\	8f/	wi-
16f/JJ	16ddd\JJ	.	.
=7	=7	=7	=7
16A/LL	8eee-\	8cc/	-dzia-
16f/	.	.	.
16c/	8r	8e-/	-łem,
16f/JJ	.	.	.
16A/LL	4r	16e-/LL	ia-
16f/	.	32f/L	.
.	.	32g/JJJ	.
16c/	.	16f/	-ko
16f/JJ	.	16e-/	ten
=8	=8	=8	=8
.	.	8qe-/	.
16B-/LL	16r	8d/	go-
16f/	16dd\LL	.	.
16d/	16ff\	8d/	-niec,
16f/JJ	16ee-\JJ	.	.
16B-/LL	8dd\L	8r	.
16f/	.	.	.
16d/	8ff\J	8f/	lub
16f/JJ	.	.	.
=9	=9	=9	=9
16c/LL	8gg\ 8bb-	8b-/	ra-
16g/	.	.	.
16en/	8r	16a/LL	-czey
16g/JJ	.	16g/JJ	.
16B-/LL	8een\ 8gg	8g/	ol-
16g/	.	.	.
16en/	8r	16a/	-brzym
16g/JJ	.	16b-/	skrzy-
=10	=10	=10	=10
16A/LL	16r	8cc/	-dla-
16f/	16aa\LL	.	.
16c/	16ff\	4cc/	-ty.
16f/JJ	16aa\JJ	.	.
16A/LL	8ccc\	.	.
16f/	.	.	.
16A/	8r	8cc#X/	si-
16f/JJ	.	.	.
!!LO:LB:g=original	!	!	!
*clefF4	*	*	*
=11	=11	=11	=11
8B-\	8r	8dd\	-we-
8r	8f/ 8b- 8dd	16b-/	-mi
.	.	16b-/	po-
8c\	8r	8g/	-mar-
8r	8g/ 8b- 8een	8cc\	-szczon
=12	=12	=12	=12
8F\L	16r	8f/	la-
.	16ff'\LL	.	.
8F\J	(16aa\	8f/	-ty,
.	16gg\JJ)	.	.
8F\L	16ff'\LL	4r	.
.	(16ff\ 16aa	.	.
8F\J	16aa\ 16ccc	.	.
.	16gg\JJ) 16bb-X	.	.
=13	=13	=13	=13
8F\	16ff\LL 16aa	4r	.
.	16ccc\	.	.
8r	16eee-\	.	.
.	16ccc\JJ	.	.
16r	16aa\LL	8r	.
16F\LL	16a\ 16ff	.	.
16G\	16b-\ 16een	8f/	fol-
16A\JJ	16cc\JJ 16ee-X	.	.
=14	=14	=14	=14
*clefG2	*	*	*
16B-/LL	8dd\	8b-/	-go-
16f/	.	.	.
16d/	8r	8b-/	-wał.
16f/JJ	.	.	.
16B-/LL	4r	16b-/LL	w po-
16f/	.	16dd/JJ	.
16d/	.	16cc/	-źney
16f/JJ	.	16b-/	li-
=15	=15	=15	=15
.	.	8qb-/	.
16c/LL	8r	8a/	-to-
16f/	.	.	.
16e-/	8aa\	8a/	-ści
16f/JJ	.	.	.
16c/LL	16aa\LL	8r	.
16f/	16bb-\	.	.
16e-/	16ccc\	16f/LL	bie-
16f/JJ	16aa\JJ	16a/JJ	.
!!LO:LB:g=original	!	!	!
=16	=16	=16	=16
16A/LL	8ff\	8cc\	-dne-
16f/	.	.	.
16c/	8r	8cc\	-mu
16f/JJ	.	.	.
16A/LL	4r	16cc\LL	chłop-
16f/	.	16ee-\JJ	.
16c/	.	16dd\	-cu
16f/JJ	.	16cc\	mi-
=17	=17	=17	=17
16B-/LL	8r	16cc#X\LL	-ło-
16f/	.	16dd\JJ	.
16d/	8b-\ [8dd	8dd\	-sci.
16f/JJ	.	.	.
16B-/LL	16b-\LL 16dd]	8r	.
16f/	16cc\ 16ee-	.	.
16d/	16dd\ 16ff	16ff\LL	fol-
16f/JJ	16cc\JJ 16ee-	16ee-\JJ	.
*clefF4	*	*	*
=18	=18	=18	=18
8B-\	8b-\ 8dd	8dd\	-go-
8r	8r	16dd\LL	-wał
.	.	16cc\JJ	.
8B-\	8g\ 8b-	8b-/	w po-
8r	8r	16b-/	-znay
.	.	16a/	li-
=19	=19	=19	=19
8E-\	16r	(16a/LL	-to-
.	16g/LL	16g/JJ)	.
!LO:TX:a:t=P:problem:mixed beam	!	!	!
8E-\L	16b-/	4g/	-sci
.	16ee-/JJ	.	.
8EE-/J	8gg\	.	.
8r	8r	8ee-\	bie-
=20	=20	=20	=20
!	!LO:TX:a:t=P:problem:mixed beam	!	!
.	.	8qee-/	.
8F\	16f/LL	8dd\	-dne-
.	16dd\	.	.
8r	16b-\	16cc\LL	-mu
.	16dd\JJ	16b-\JJ	.
8FF/	16e-/LL	8f/	chło-
.	16cc/	.	.
8r	16a/	16g/	-pcu
.	16cc/JJ	16a/	mi-
*	*custos:b	*custos:b-	*
*custos:BB	*custos:d	*	*
!!LO:LB:g=original	!	!	!
=21	=21	=21	=21
16BB-/LL	16d/LL 16b-	16b-\LL	-ło-
16F/	16f/ 16cc	16cc\	.
16D/	16b-/ 16dd	16dd\	.
16F/JJ	16cc/JJ 16ee-	16ee-\JJ	.
16BB-/LL	8dd\ 8ff	8ff\	-sci.
16F/	.	.	.
16D/	16cc\LL 16ee-	16ee-\LL	bie-
16F/JJ	16b-\JJ 16dd	16dd\JJ	.
=22	=22	=22	=22
4E-\	8g/L 8cc	16cc\LL	-dne-
.	.	16gg\JJ	.
.	8g/J 8cc	16ee-\LL	-mu
.	.	16cc\JJ	.
8F\L	8d/L 8b-	8b-\	chło-
8FF/J	8c/J 8e- 8a	16a/	-pcu
.	.	16a/	mi-
=23	=23	=23	=23
8BB-/L	16d\LL 16b-	8b-/	-ło-
.	16dd\ 16bb-	.	.
8BB-/	16ff\ 16aa	8b-/	-sci.
.	16ee-\JJ 16gg	.	.
8BB-/	16dd\LL 16ff	4r	.
.	16dd\ 16ff	.	.
8BBn/J 8G	16dd\ 16ff	.	.
.	16dd\JJ 16ff	.	.
=24	=24	=24	=24
8C/L 8G	16dd\LL 16ff	2r	.
.	16cc\ 16ee-	.	.
8F/J	16a\ 16cc	.	.
.	16a\JJ 16cc	.	.
8BB-\L 8B-	16a\LL 16cc#X	.	.
.	16b-\ 16dd	.	.
8GG\J 8G	16d\ 16b-	.	.
.	16d\JJ 16b-	.	.
=25	=25	=25	=25
8E-\L	16g\LL 16cc	2r	.
.	16gg\	.	.
8E-\J 8G	16ee-\	.	.
.	16cc\JJ	.	.
8F\L	8d/L 8b-	.	.
8FF/J	8c/J 8e- 8a	.	.
=26	=26	=26	=26
8BB-/L	8d/L 8b-	4.r	.
8BB-/	8f/ 8dd	.	.
8BB-/J	8d/J 8b-	.	.
==	==	==	==
*-	*-	*-	*-
!!!system-decoration: [(s1){s2,s3}]
!!!RDF**kern: > = above
!!!RDF**kern: < = below
!!!ENC: Berenika Jozajtis
!!!END: 2022-07-26
!!!ENC: Jan Barakat
!!!END: 2022-08-23
!!!YEC: Copyright 2022 Narodowy Instytut Fryderyka Chopina (https://polishscores.org)
!!!YEM: License CC-BY-4.0 (https://creativecommons.org/licenses/by/4.0)
